X: 05039
T: JAMIE McDONOUGH
C: Bob McQuillen 18 Aug 80
B: Bob's Note Book 5 #39
%R: reel
Z: 2021 John Chambers <jc:trillian.mit.edu>
M: C
L: 1/8
K: D
FE \
| DA,DE FDFE | DFAd fded | BGBd AFDF | EFGE CA,B,C |
| DA,DE FDFE | DFAd fded | fdef dBAG | FDEC D2 :|
|: de \
| fefa gfea | fedf edcB | AFAd cBAB |AdAF EABc |
| dcdf edcB | ABAG FAdf | Adfa gecd | e2d2 d2 :|
%%begintext align
%% Jamie's been a
%% real dance enthusiast for a long while;
%% it's about time you got a tune of your
%% own, Jamie! I hope you like it --
%%endtext

%%sep 1 1 500

%%sep 1 1 500

